public/_vara/icons/vestel.svg

<svg fill="currentColor" viewBox="0 0 24 24"><path d="M12.051 9.4h-1.388s-1.647.059-1.774 1.593 1.582 1.503 1.901 2.158c.203.419-.295.739-.718.739H8.928v.71h1.94s2.031-.11 1.745-1.857c-.183-1.127-1.425-.952-1.842-1.71-.416-.757.31-.972.388-.972h.882zm.205.037h4.103v.659h-1.208v4.468h-1.634v-4.468h-1.261zm4.397 0h3.393v.605h-1.758v1.709h1.599v.605h-1.599v1.496h1.866v.712h-3.501zm3.775 0h1.707v4.415H24v.712h-3.572zm-15.386 0H8.49v.605H6.677v1.709h1.6v.605h-1.6v1.496h1.919v.712H5.042zm-1.051-.001-1.1 3.578-1.135-3.578H0l1.801 5.126h1.313L4.87 9.436z"/></svg>

<svg role="img" viewBox="0 0 24 24" xmlns="http://www.w3.org/2000/svg"><title>Vestel</title><path d="M 12.051 9.4 L 10.663 9.4 C 10.663 9.4 9.016 9.459 8.889 10.993 C 8.762 12.527 10.471 12.496 10.79 13.151 C 10.993 13.57 10.495 13.89 10.072 13.89 L 8.928 13.89 L 8.928 14.6 L 10.868 14.6 C 10.868 14.6 12.899 14.49 12.613 12.743 C 12.43 11.616 11.188 11.791 10.771 11.033 C 10.355 10.276 11.081 10.061 11.159 10.061 L 12.041 10.061 L 12.051 9.4 Z M 12.256 9.437 L 16.359 9.437 L 16.359 10.096 L 15.151 10.096 L 15.151 14.564 L 13.517 14.564 L 13.517 10.096 L 12.256 10.096 L 12.256 9.437 Z M 16.653 9.437 L 20.046 9.437 L 20.046 10.042 L 18.288 10.042 L 18.288 11.751 L 19.887 11.751 L 19.887 12.356 L 18.288 12.356 L 18.288 13.852 L 20.154 13.852 L 20.154 14.564 L 16.653 14.564 L 16.653 9.437 Z M 20.428 9.437 L 22.135 9.437 L 22.135 13.852 L 24 13.852 L 24 14.564 L 20.428 14.564 L 20.428 9.437 Z M 5.042 9.437 L 8.49 9.437 L 8.49 10.042 L 6.677 10.042 L 6.677 11.751 L 8.277 11.751 L 8.277 12.356 L 6.677 12.356 L 6.677 13.852 L 8.596 13.852 L 8.596 14.564 L 5.042 14.564 L 5.042 9.437 Z M 3.991 9.436 L 2.891 13.014 L 1.756 9.436 L 0 9.436 L 1.801 14.562 L 3.114 14.562 L 4.87 9.436 L 3.991 9.436 Z"/></svg>
